X: 2
T: The Ballydesmond
R: polka
M: 2/4
L: 1/8
K: Ador
|:A>B AG|EF GE|A>B AG|Ad dc|A>B AG|EF G2|AB cE|ED D2:|ed ^cd |eA B/^c/d|ed ^cd|ea a>g|ed ^cd|ed ^cd|A3B cd|ef gf| ed ^cd |eA B/^c/d|ed ^cd|ea a>g |(3efg d>B|ce d>B|AB cE|ED D2||


Tune 298	Setting 28412

